X:1
T:Glory in the Highest!
T:Glory in the Highest!
T:Robert Lowry
T:Letis Thorne, 1869
T:Public Domain Courtesy of the Cyber Hymnal™
T:Public Domain Courtesy of the Cyber Hymnal™
C:Robert Lowry
Z:Public Domain
Z:Courtesy of the Cyber Hymnal™
%%score ( 1 2 ) ( 3 4 )
L:1/8
Q:1/4=112
M:4/4
K:Eb
V:1 treble 
V:2 treble 
V:3 bass 
V:4 bass 
V:1
 E3 E E2 E2 | E2 E2 [EG]2 [GB]2 | [Ac]3 [Ac] [GB]2 E2 | [DA]2 [EG]2 [DF]4 | E3 E E2 E2 | %5
w: 1.~While the si- lent|stars are keep- ing|Faith- ful watch o’er|Beth- lehem’s plains,|Hark! a- long the|
w: 2.~Shep- herds, won- dering,|view the glo- ry|Light- ing up the|mid- night sky,|While they lis- ten|
w: 3.~They are sing- ing|of a Sav- ior,|Fond- ly hoped for,|prom- ised long,|Lo! He comes with|
w: 4.~Comes to preach the|great sal- va- tion,|Comes to wipe the|mourn- er’s tears,|Comes to free each|
w: 5.~Let us, then, our|offer- ings bring- ing,|Bow be- fore Him|and a- dore—|Join the heav’n- ly|
 [EG]2 [GB]2 [Ac]2 [ce]2 | [ce]3 [Ac] [GB]2 E2 | [EG]2 [DF]2 E4 || %8
w: night breeze sweep- ing,|An- gel harps and|heav’n- ly strains:|
w: to the sto- ry|Of that heav’n- ly|com- pa- ny:|
w: heav’n- ly fa- vor,|Min- gles with the|bu- sy throng.|
w: cap- tive na- tion,|Comes to ban- ish|all our fears.|
w: host in sing- ing|Praise to Je- sus|ev- er- more.|
"^Refrain" [Ge]3 [Ge] [Ge]2 [GB]2 | [Ac]2 [GB]2 [GB]2 [EG]2 | [Ge]3 [Ge] [Ee]2 [Ec]2 | %11
w: |||
w: |||
w: “Glo- ry, glo- ry|in the high- est!|Peace on earth, good|
w: |||
w: |||
 [Ff]2 [Fe]2 ([Fd][Ec]) [DB]2 | [Ge]3 [Ge] [Ge]2 [GB]2 | [Ac]2 [GB]2 (cd) [Ge]2 | %14
w: |||
w: |||
w: will from Hea- * ven!|Glo- ry, glo- ry|in the high- * est!|
w: |||
w: |||
 [GB]3 [GB] [EG]2 [DF]2 | E8 |] %16
w: ||
w: ||
w: Glo- ry to our|God!”|
w: ||
w: ||
V:2
 E3 E E2 E2 | E2 E2 x4 | x6 E2 | x8 | E3 E E2 E2 | x8 | x6 E2 | x4 E4 || x8 | x8 | x8 | x8 | x8 | %13
 x4 A2 x2 | x8 | E8 |] %16
V:3
 [E,G,]3 [E,G,] [E,G,]2 [E,G,]2 | [E,G,]2 [E,G,]2 [E,B,]2 [E,E]2 | [A,,E]3 [C,E] [E,E]2 [G,B,]2 | %3
 [F,B,]2 [E,B,]2 [B,,B,]4 | [E,G,]3 [E,G,] [E,G,]2 [E,G,]2 | [E,B,]2 [E,E]2 [A,E]2 [A,E]2 | %6
 [A,E]3 [A,E] [E,E]2 [G,B,]2 | B,2 [B,,A,]2 [E,G,]4 || [E,B,]3 [E,B,] [E,B,]2 [E,E]2 | %9
 [E,E]2 [E,E]2 [E,E]2 [E,B,]2 | [E,B,]3 [E,B,] [A,C]2 [A,E]2 | [F,D]2 [F,C]2 B,2 B,2 | %12
 [E,B,]3 [E,B,] [E,B,]2 [E,E]2 | [E,E]2 [E,E]2 [E,E]2 [E,B,]2 | [E,E]3 [G,E] B,2 [B,,A,]2 | %15
 [E,G,]8 |] %16
V:4
 x8 | x8 | x8 | x8 | x8 | x8 | x8 | B,2 x6 || x8 | x8 | x8 | x4 B,2 B,2 | x8 | x8 | x4 B,2 x2 | %15
 x8 |] %16

